src/images/icons/github.svg

<svg width="24" height="24" viewBox="0 0 24 24" fill="none" xmlns="http://www.w3.org/2000/svg">
    <g clip-path="url(#clip0_230_1045)">
        <path d="M11.9964 0C5.37238 0 -2.06007e-05 5.508 -2.06007e-05 12.2976C-0.0456206 17.5272 3.24718 22.2108 8.20438 23.9664C8.81278 24.0804 9.02518 23.7 9.02518 23.3616V21.2724C5.68918 22.0152 4.98358 19.6236 4.98358 19.6236C4.77203 18.8794 4.29963 18.2361 3.65278 17.8116C2.56558 17.0508 3.73798 17.0628 3.73798 17.0628C4.50958 17.1828 5.18278 17.6508 5.56198 18.3312C6.62998 20.2092 8.36878 19.6656 9.05518 19.3512C9.10918 18.7332 9.37918 18.1524 9.81478 17.7084C7.15318 17.4012 4.34518 16.344 4.34518 11.6328C4.31853 10.4172 4.75281 9.23658 5.56078 8.328C5.19547 7.26791 5.23652 6.10997 5.67598 5.0784C5.67598 5.0784 6.68518 4.77 8.99518 6.3588C10.961 5.81131 13.039 5.81131 15.0048 6.3588C17.2968 4.77 18.2988 5.1024 18.2988 5.1024C18.7428 6.1344 18.786 7.2912 18.42 8.352C19.2277 9.26027 19.6619 10.4404 19.6356 11.6556C19.6356 16.3788 16.8276 17.418 14.166 17.7252C14.7504 18.336 15.0456 19.1628 14.9808 20.0028V23.3724C14.9808 23.778 15.1992 24.0852 15.8076 23.9772C20.7636 22.2156 24.0516 17.5272 23.9988 12.2964C24 5.508 18.6276 0 11.9964 0Z"
              fill="#FFFBF4"/>
    </g>
    <defs>
        <clipPath id="clip0_230_1045">
            <rect width="24" height="24" fill="white"/>
        </clipPath>
    </defs>
</svg>

<svg width="24" height="24" fill="none" xmlns="http://www.w3.org/2000/svg"><g clip-path="url(#a)"><path d="M11.996 0C5.372 0 0 5.508 0 12.298c-.046 5.23 3.247 9.913 8.204 11.668.609.114.821-.266.821-.604v-2.09c-3.336.743-4.041-1.648-4.041-1.648a3.22 3.22 0 0 0-1.331-1.812c-1.087-.761.085-.75.085-.75.772.12 1.445.589 1.824 1.27 1.068 1.877 2.807 1.334 3.493 1.02a2.682 2.682 0 0 1 .76-1.644c-2.662-.307-5.47-1.364-5.47-6.075a4.814 4.814 0 0 1 1.216-3.305 4.528 4.528 0 0 1 .115-3.25s1.01-.308 3.32 1.28a11.2 11.2 0 0 1 6.009 0c2.292-1.588 3.294-1.256 3.294-1.256a4.5 4.5 0 0 1 .121 3.25 4.814 4.814 0 0 1 1.216 3.304c0 4.723-2.808 5.762-5.47 6.07.584.61.88 1.437.815 2.277v3.37c0 .405.218.712.827.604 4.956-1.761 8.244-6.45 8.19-11.68C24 5.507 18.629 0 11.997 0Z" fill="#FFFBF4"/></g><defs><clipPath id="a"><path fill="#fff" d="M0 0h24v24H0z"/></clipPath></defs></svg>
